svgs/light_novel_reader.svg

<svg width="192" height="192" viewBox="0 0 192 192" fill="none" xmlns="http://www.w3.org/2000/svg">
<g clip-path="url(#clip0_917_1292)">
<path d="M155.868 37.6679V154.674C155.868 158.745 154.238 162.649 151.337 165.528C148.435 168.406 144.5 170.024 140.396 170.024H51.4158C49.3945 170.024 47.393 169.629 45.5256 168.861C43.6581 168.094 41.9614 166.969 40.5321 165.551C39.1028 164.133 37.9691 162.45 37.1956 160.597C36.422 158.744 36.0239 156.759 36.0239 154.754V37.2464C36.0239 35.2411 36.422 33.2554 37.1956 31.4028C37.9691 29.5501 39.1028 27.8667 40.5321 26.4488C41.9614 25.0308 43.6581 23.906 45.5256 23.1386C47.393 22.3712 49.3945 21.9762 51.4158 21.9762H116.908C125.408 21.9762 132.45 28.8113 132.608 37.2433C133.045 60.4612 133.72 103.601 133.047 119.263C132.906 122.528 129.593 124.971 126.25 124.927C111.412 124.733 73.0349 124.913 51.4154 125.038C42.9149 125.087 36.0239 131.971 36.0239 140.404V150.239" stroke="black" stroke-width="12" stroke-linecap="round" stroke-linejoin="round"/>
<path d="M56.3853 147.88H128.143" stroke="black" stroke-width="12" stroke-linecap="round" stroke-linejoin="round"/>
<path d="M62.6104 105.422C68.3743 100.664 65.9773 98.5402 70.9451 93.7478C80.7181 84.3198 98.2234 86.4049 100.837 79.6715C103.327 73.2566 107.088 63.2334 109.429 41.3703C77.6583 59.1705 75.5245 95.3086 62.6104 105.422Z" stroke="black" stroke-width="10" stroke-linecap="round" stroke-linejoin="round"/>
</g>
<defs>
<clipPath id="clip0_917_1292">
<rect width="131.892" height="160" fill="white" transform="translate(30 16)"/>
</clipPath>
</defs>
</svg>

<svg xmlns="http://www.w3.org/2000/svg" width="192" height="192" fill="none" viewBox="0 0 192 192"><g stroke="#000" stroke-linecap="round" stroke-linejoin="round" clip-path="url(#a)"><path stroke-width="12" d="M155.868 37.668v117.006c0 4.071-1.63 7.975-4.531 10.854a15.54 15.54 0 0 1-10.941 4.496h-88.98c-2.021 0-4.023-.395-5.89-1.163a15.4 15.4 0 0 1-4.994-3.31 15.3 15.3 0 0 1-3.336-4.954 15.2 15.2 0 0 1-1.172-5.843V37.246c0-2.005.398-3.99 1.172-5.843a15.3 15.3 0 0 1 3.336-4.954 15.4 15.4 0 0 1 4.994-3.31 15.5 15.5 0 0 1 5.89-1.163h65.492c8.5 0 15.542 6.835 15.7 15.267.437 23.218 1.112 66.358.439 82.02-.141 3.265-3.454 5.708-6.797 5.664-14.838-.194-53.215-.014-74.835.111-8.5.049-15.391 6.933-15.391 15.366v9.835m20.361-2.359h71.758"/><path stroke-width="10" d="M62.61 105.422c5.764-4.758 3.367-6.882 8.335-11.674 9.773-9.428 27.278-7.343 29.892-14.077 2.49-6.414 6.251-16.438 8.592-38.3-31.77 17.8-33.904 53.938-46.819 64.051"/></g><defs><clipPath id="a"><path fill="#fff" d="M30 16h131.892v160H30z"/></clipPath></defs></svg>
